X: 13785
T: Fortune
R: jig
M: 6/8
K: Gmajor
|:GAB d2d|ded B2d|edd edd|efg d2B|
GAB d2d|ded B2d|g2e d2B|1 ABA G2B:|2 ABA G2e||
K: Ador
|:a2a age|a3 b2a|g2g ged|g3 f3|
g2f e2d|ded B2d|g3 fed|1 BAG A2e:|2 BAG A2B||

